X:1
T:The Mulligan Guards
M:2/4
L:1/8
K:Eb
 B,| EE GE| B2 BB| BB cG| A2 AG| FF C/2C/2 F|E-E B,E| ED CF| B,3 G|\
 GF DF| E C2 E| GF DE| C3 B| B/2B/2 BF F/2F/2| GG EE| FF CD| E3 F|\
 G2 c2| B3 E| E3/2 D/2 DE| F3 G| A2 d2| c3 F| F3/2 E/2E/2 E/2 F| G3 A|\
 B2 f2| e3 G| G3/2 F/2 FA| c2 dc| B2 B2| B3.99999962500005/5.99999925000009 c3.99999962500005/5.99999925000009 B3.99999962500005/5.99999925000009 B3.99999962500005/5.99999925000009 c3.99999962500005/5.99999925000009 d3.99999962500005/5.99999925000009|\
 e4-| e2||

